X: 15090
T: Get Up Old Woman And Shake Yourself
R: jig
M: 6/8
K: Edorian
|:G2B BAB|G2E E2G|F2A AFA|F2D D2F|
G2B BAB|def gfe|d2B BAB|1 G2E E2D:|2 G2E E2e||
|:d2B BAB|d2B B2e|d2B BAB|G2E E2e|
d2B BAB|def gfe|d2B BAB|G2E E3:|

